resources/dark/search.svg

<?xml version="1.0" encoding="UTF-8" standalone="no"?>
<svg
   role="img"
   width="16px"
   height="16px"
   viewBox="0 0 24 24"
   aria-labelledby="searchIconTitle"
   stroke="#000000"
   stroke-width="4.5"
   stroke-linecap="square"
   stroke-linejoin="miter"
   fill="#fff"
   color="#000000"
   version="1.1"
   id="svg1"
   sodipodi:docname="search.svg"
   inkscape:version="1.3.2 (091e20e, 2023-11-25, custom)"
   xmlns:inkscape="http://www.inkscape.org/namespaces/inkscape"
   xmlns:sodipodi="http://sodipodi.sourceforge.net/DTD/sodipodi-0.dtd"
   xmlns="http://www.w3.org/2000/svg"
   xmlns:svg="http://www.w3.org/2000/svg">
  <defs
     id="defs1" />
  <sodipodi:namedview
     id="namedview1"
     pagecolor="#ffffff"
     bordercolor="#000000"
     borderopacity="0.25"
     inkscape:showpageshadow="2"
     inkscape:pageopacity="0.0"
     inkscape:pagecheckerboard="0"
     inkscape:deskcolor="#d1d1d1"
     inkscape:zoom="58.6875"
     inkscape:cx="7.9914803"
     inkscape:cy="7.9914803"
     inkscape:window-width="1437"
     inkscape:window-height="860"
     inkscape:window-x="468"
     inkscape:window-y="16"
     inkscape:window-maximized="0"
     inkscape:current-layer="svg1" />
  <title
     id="searchIconTitle">Search</title>
  <path
     d="M14.4121122,14.4121122 L20,20"
     id="path1"
     style="fill:#ff0000" />
  <circle
     cx="10"
     cy="10"
     r="6"
     id="circle1" />
  <path
     style="fill:#000000;fill-opacity:1;stroke-width:0.0766773"
     d="M 6.3022364,9.1328676 C 5.9211093,9.0730273 5.5335395,8.9149446 5.22501,8.6934865 4.7067593,8.3214935 4.3591414,7.7865544 4.2228167,7.1512402 4.1733987,6.9209375 4.1689828,6.4594334 4.2139818,6.227902 4.4120693,5.2086906 5.1828428,4.4249233 6.1846984,4.2239628 7.3808964,3.9840196 8.6065622,4.6797315 9.0096768,5.827476 9.1230742,6.1503399 9.14052,6.2615046 9.1407085,6.6624068 9.1408428,6.9478664 9.13443,7.0569706 9.1116645,7.1565495 8.9969563,7.6582979 8.7683231,8.0797149 8.4240191,8.4240191 8.0818898,8.7661482 7.6550516,8.9985254 7.1650692,9.1094102 7.0257443,9.1409401 6.4528486,9.1565149 6.3022364,9.1328676 Z"
     id="path2"
     transform="scale(1.5)" />
  <path
     style="fill:#000000;fill-opacity:1;stroke-width:0.0766773"
     d="M 11.344936,13.449321 9.3566,11.460985 9.0872457,11.591085 C 8.6604795,11.797217 8.266287,11.935649 7.8440678,12.027662 5.8195561,12.468859 3.7286501,11.740934 2.4174396,10.138445 0.85959271,8.2345307 0.76053466,5.5278846 2.1750628,3.515779 2.7045066,2.7626679 3.4246507,2.1464197 4.2513312,1.7390557 6.0202648,0.86737709 8.1234067,1.0184555 9.7600736,2.1347742 11.608204,3.3953254 12.504934,5.6540831 12.02731,7.8456757 11.934203,8.2729021 11.801548,8.6502616 11.590861,9.0872334 l -0.129865,0.2693422 1.988364,1.9884184 1.988364,1.988418 -1.052225,1.052123 -1.052226,1.052123 z"
     id="path3"
     transform="scale(1.5)" />
  <path
     style="fill:#ff0000;stroke-width:0.0766773"
     d="M 11.34552,13.483984 9.3577666,11.49623 9.0579524,11.634819 C 8.2789756,11.994901 7.6208796,12.154361 6.8157614,12.178111 5.9459285,12.20377 5.0919584,12.023329 4.3003318,11.646607 2.6782856,10.874704 1.5263692,9.3511881 1.2275233,7.5825346 1.1700437,7.2423543 1.1544014,7.0397567 1.1551661,6.6453674 1.1569261,5.7375767 1.3664906,4.8963273 1.7918716,4.0894569 1.913743,3.8582891 2.200407,3.4215581 2.3566848,3.228967 3.3086884,2.0557529 4.6226965,1.3377426 6.1171459,1.1741474 c 0.2459677,-0.026926 0.8542328,-0.026977 1.0905218,-9.11e-5 0.3702819,0.042131 0.7424549,0.1174475 1.0734825,0.217239 0.3911739,0.1179232 0.9388994,0.3699789 1.312034,0.6037799 2.1684258,1.3587054 3.1198078,4.0387151 2.2915938,6.4553405 -0.068,0.1984201 -0.219513,0.5542142 -0.350827,0.8238432 l -0.03969,0.081501 1.988772,1.9888261 1.988771,1.988826 -1.069264,1.069163 -1.069264,1.069163 z"
     id="path4"
     transform="scale(1.5)" />
  <path
     style="fill:#333333;stroke-width:0.0766773"
     d="m 11.35675,13.427038 c -1.087077,-1.087107 -1.9854846,-1.976559 -1.9964617,-1.976559 -0.010977,0 -0.1094212,0.04204 -0.2187648,0.09341 -0.6428969,0.30208 -1.1674135,0.463599 -1.7805011,0.548288 -0.3041798,0.04202 -1.0832575,0.04233 -1.3801917,5.47e-4 C 5.3376101,12.002225 4.8184878,11.843656 4.2598509,11.567046 3.4490486,11.165575 2.8199737,10.642774 2.2803971,9.9219946 1.7526897,9.2170704 1.4135466,8.4094727 1.2584171,7.488365 c -0.036486,-0.2166448 -0.0401,-0.2887651 -0.0401,-0.8003991 0,-0.5052163 0.00409,-0.5891125 0.040263,-0.8264111 C 1.3537013,5.2376017 1.5693975,4.5925603 1.8568524,4.0724175 1.976673,3.855605 2.268457,3.4164383 2.4115835,3.2374867 2.5633409,3.0477439 3.0713467,2.5426566 3.251597,2.4022991 4.1970902,1.6660617 5.2279349,1.2694002 6.3514377,1.209503 7.1576482,1.166522 7.9442382,1.290866 8.6389776,1.5711177 9.7219606,2.0079834 10.58902,2.7041951 11.21161,3.6368325 c 0.572275,0.8572642 0.883944,1.8358673 0.914754,2.8722197 0.02795,0.9400068 -0.145511,1.708239 -0.604026,2.6751864 l -0.08484,0.1789137 1.983073,1.9851307 1.983073,1.98513 -1.035196,1.035092 -1.035196,1.035092 z"
     id="path5"
     transform="scale(1.5)" />
  <path
     style="fill:#ffffff;stroke-width:0.0766773"
     d="M 11.42492,13.430213 C 10.375293,12.3831 9.4805454,11.497248 9.4365923,11.461652 l -0.079914,-0.06472 -0.2943408,0.1309 C 8.0718702,11.968316 7.4233627,12.10431 6.457934,12.073983 5.6850155,12.049703 5.0492103,11.891082 4.3317458,11.54354 3.4766407,11.129324 2.8672729,10.626007 2.3023543,9.8673322 1.8719149,9.2892606 1.5641038,8.621667 1.3903059,7.8892439 1.2734844,7.3969321 1.2701622,7.3634449 1.2702831,6.6794462 1.2703897,6.0763439 1.2718206,6.0493824 1.317531,5.7892086 1.4532799,5.016555 1.7200829,4.3425886 2.142183,3.7060703 2.4120549,3.2991088 2.5031242,3.1880579 2.849087,2.8440637 3.1694047,2.5255687 3.31613,2.4017146 3.6123536,2.199773 4.6272835,1.5078748 5.7884526,1.1826876 6.9733759,1.2585135 c 0.7046685,0.045093 1.258305,0.17916 1.8714117,0.4531744 1.3870084,0.6198926 2.4470354,1.7669328 2.9374954,3.1786209 0.184824,0.5319774 0.275388,1.0403269 0.292938,1.6443025 0.02673,0.9198482 -0.13181,1.625404 -0.585518,2.6057815 l -0.109821,0.2373043 1.977804,1.9778589 1.977804,1.977859 -1.001078,1.000319 -1.001079,1.00032 z"
     id="path6"
     transform="scale(1.5)" />
  <path
     style="fill:#ffffff;stroke-width:0.0766773"
     d="m 12.174603,14.107331 c -1.504531,-1.506269 -2.7783276,-2.759088 -2.8052865,-2.759088 -0.011746,0 -0.1636253,0.06227 -0.337509,0.138373 -0.6758157,0.295791 -1.1331889,0.43441 -1.6878245,0.511543 -0.2185571,0.03039 -1.0729099,0.03075 -1.3120341,5.4e-4 C 5.3552252,11.913217 4.8754682,11.762615 4.2257721,11.431719 3.4496319,11.036423 2.877518,10.553197 2.3529458,9.8498697 1.9176155,9.2661945 1.6235892,8.6334633 1.4383819,7.8817694 1.340337,7.4838381 1.3277615,7.3764655 1.3175219,6.8498403 1.3063884,6.2772377 1.3253108,5.985926 1.3961054,5.6400426 1.5412954,4.9306832 1.7905445,4.3330863 2.1991698,3.7146241 2.4430756,3.3454679 2.5772866,3.1846795 2.9328048,2.8357092 3.2345165,2.5395542 3.3894512,2.4101242 3.6547813,2.2325811 4.8203849,1.4526284 6.0936298,1.1596744 7.4632588,1.3563092 8.3420561,1.4824763 9.2649743,1.8878341 10.00489,2.472627 c 0.210216,0.1661449 0.694746,0.6471626 0.856262,0.8500567 0.203247,0.255315 0.448611,0.6425039 0.603228,0.9519058 0.278845,0.5579922 0.438606,1.0801032 0.524701,1.7147609 0.0377,0.2778893 0.04391,1.0890159 0.01024,1.3375932 -0.07816,0.5770484 -0.235175,1.0885933 -0.542701,1.768038 -0.06898,0.1523997 -0.125416,0.2827387 -0.125416,0.2896424 0,0.0069 0.88563,0.898206 1.968066,1.980673 l 1.968065,1.96812 -0.967051,0.96694 -0.967052,0.96694 z"
     id="path7"
     transform="scale(1.5)" />
</svg>

<svg width="16" height="16" viewBox="0 0 24 24" aria-labelledby="searchIconTitle" stroke="#000" stroke-width="4.5" stroke-linecap="square" fill="#fff" color="#000" xmlns="http://www.w3.org/2000/svg"><path d="M14.412 14.412 20 20" style="fill:red"/><circle cx="10" cy="10" r="6"/><path style="fill:#000;fill-opacity:1;stroke-width:.0766773" d="M6.302 9.133a2.519 2.519 0 0 1-2.08-1.982 3.028 3.028 0 0 1-.008-.923 2.511 2.511 0 0 1 1.97-2.004A2.5 2.5 0 0 1 9.01 5.827c.113.323.13.435.13.835 0 .286-.006.395-.028.495a2.555 2.555 0 0 1-.688 1.267 2.553 2.553 0 0 1-1.259.685c-.14.032-.712.048-.863.024Z" transform="scale(1.5)"/><path style="fill:#000;fill-opacity:1;stroke-width:.0766773" d="M11.345 13.45 9.357 11.46l-.27.13a5.49 5.49 0 0 1-6.67-1.453 5.48 5.48 0 0 1-.242-6.622 5.545 5.545 0 0 1 2.076-1.777 5.477 5.477 0 0 1 5.51.396 5.493 5.493 0 0 1 2.266 5.71 5.377 5.377 0 0 1-.436 1.242l-.13.27 1.988 1.988 1.989 1.988-1.053 1.053-1.052 1.052z" transform="scale(1.5)"/><path style="fill:red;stroke-width:.0766773" d="m11.346 13.484-1.988-1.988-.3.139c-.779.36-1.437.52-2.242.543a5.453 5.453 0 0 1-2.516-.531 5.534 5.534 0 0 1-3.072-4.064 4.736 4.736 0 0 1-.073-.938 5.393 5.393 0 0 1 .637-2.556c.122-.23.408-.667.565-.86a5.556 5.556 0 0 1 3.76-2.055 7.377 7.377 0 0 1 1.09 0c.37.042.743.118 1.074.217.391.118.939.37 1.312.604a5.518 5.518 0 0 1 2.292 6.455 8.76 8.76 0 0 1-.351.824l-.04.082 1.989 1.989 1.989 1.988-1.07 1.07-1.069 1.069z" transform="scale(1.5)"/><path style="fill:#333;stroke-width:.0766773" d="M11.357 13.427A141.936 141.936 0 0 0 9.36 11.45c-.01 0-.11.043-.218.094-.643.302-1.168.463-1.781.548a7.593 7.593 0 0 1-1.38 0 5.362 5.362 0 0 1-1.721-.525 5.35 5.35 0 0 1-1.98-1.645 5.515 5.515 0 0 1-1.022-2.434c-.036-.216-.04-.288-.04-.8 0-.505.004-.59.04-.826.096-.624.311-1.27.599-1.79.12-.216.411-.656.555-.835.151-.19.66-.694.84-.835.945-.736 1.976-1.133 3.1-1.192a5.372 5.372 0 0 1 2.287.361c1.083.437 1.95 1.133 2.573 2.066.572.857.884 1.836.914 2.872.028.94-.145 1.708-.604 2.675l-.085.18 1.984 1.984 1.983 1.985-1.036 1.036-1.035 1.035z" transform="scale(1.5)"/><path style="fill:#fff;stroke-width:.0766773" d="M11.425 13.43a197.933 197.933 0 0 0-1.988-1.968l-.08-.065-.295.13c-.99.441-1.639.577-2.604.547a4.955 4.955 0 0 1-2.126-.53 5.212 5.212 0 0 1-2.03-1.677A5.368 5.368 0 0 1 1.39 7.89c-.117-.492-.12-.526-.12-1.21 0-.603.002-.63.048-.89a5.348 5.348 0 0 1 .824-2.083c.27-.407.361-.518.707-.862.32-.318.467-.442.763-.644 1.015-.692 2.176-1.017 3.361-.941.705.045 1.259.179 1.872.453a5.446 5.446 0 0 1 2.937 3.178c.185.532.276 1.04.293 1.645.027.92-.132 1.625-.585 2.605l-.11.238 1.978 1.978 1.977 1.977-1 1-1.002 1.001z" transform="scale(1.5)"/><path style="fill:#fff;stroke-width:.0766773" d="M12.175 14.107c-1.505-1.506-2.779-2.759-2.806-2.759-.011 0-.163.063-.337.139-.676.295-1.133.434-1.688.511-.219.03-1.073.03-1.312 0-.677-.085-1.157-.235-1.806-.566A5.112 5.112 0 0 1 2.353 9.85a5.33 5.33 0 0 1-.915-1.968c-.098-.398-.11-.506-.12-1.032-.012-.573.007-.864.078-1.21.145-.71.395-1.307.803-1.925.244-.37.378-.53.734-.88a4.34 4.34 0 0 1 .722-.602c1.165-.78 2.439-1.073 3.808-.877.88.126 1.802.532 2.542 1.117.21.166.695.647.856.85.203.255.449.642.603.952.28.558.439 1.08.525 1.714.038.278.044 1.09.01 1.338-.078.577-.235 1.089-.542 1.768a5.168 5.168 0 0 0-.126.29c0 .007.886.898 1.968 1.98l1.968 1.968-.967.967-.967.967z" transform="scale(1.5)"/></svg>
